packages/icons/svg/Navigation_Display_DisplayProductX4_Outline_48px.svg

<svg xmlns="http://www.w3.org/2000/svg" viewBox="0 0 48 48"><path d="M19.24 7v12.24H7V7h12.24m1-3H6a2 2 0 00-2 2v14.24a2 2 0 002 2h14.24a2 2 0 002-2V6a2 2 0 00-2-2zM41 7v12.24H28.76V7H41m1-3H27.76a2 2 0 00-2 2v14.24a2 2 0 002 2H42a2 2 0 002-2V6a2 2 0 00-2-2zM19.24 28.76V41H7V28.76h12.24m1-3H6a2 2 0 00-2 2V42a2 2 0 002 2h14.24a2 2 0 002-2V27.76a2 2 0 00-2-2zM41 28.76V41H28.76V28.76H41m1-3H27.76a2 2 0 00-2 2V42a2 2 0 002 2H42a2 2 0 002-2V27.76a2 2 0 00-2-2z"/><path d="M20.24 4H6a2 2 0 00-2 2v14.24a2 2 0 002 2h14.24a2 2 0 002-2V6a2 2 0 00-2-2zm-1 15.24H7V7h12.24zM42 4H27.76a2 2 0 00-2 2v14.24a2 2 0 002 2H42a2 2 0 002-2V6a2 2 0 00-2-2zm-1 15.24H28.76V7H41zM20.24 25.76H6a2 2 0 00-2 2V42a2 2 0 002 2h14.24a2 2 0 002-2V27.76a2 2 0 00-2-2zm-1 15.24H7V28.76h12.24zM42 25.76H27.76a2 2 0 00-2 2V42a2 2 0 002 2H42a2 2 0 002-2V27.76a2 2 0 00-2-2zM41 41H28.76V28.76H41z"/></svg>

<svg xmlns="http://www.w3.org/2000/svg" viewBox="0 0 48 48"><defs></defs><g id="Icon"><path  d="M19.24,7V19.24H7V7H19.24m1-3H6A2,2,0,0,0,4,6V20.24a2,2,0,0,0,2,2H20.24a2,2,0,0,0,2-2V6a2,2,0,0,0-2-2Z"/><path  d="M41,7V19.24H28.76V7H41m1-3H27.76a2,2,0,0,0-2,2V20.24a2,2,0,0,0,2,2H42a2,2,0,0,0,2-2V6a2,2,0,0,0-2-2Z"/><path  d="M19.24,28.76V41H7V28.76H19.24m1-3H6a2,2,0,0,0-2,2V42a2,2,0,0,0,2,2H20.24a2,2,0,0,0,2-2V27.76a2,2,0,0,0-2-2Z"/><path  d="M41,28.76V41H28.76V28.76H41m1-3H27.76a2,2,0,0,0-2,2V42a2,2,0,0,0,2,2H42a2,2,0,0,0,2-2V27.76a2,2,0,0,0-2-2Z"/><path  d="M20.24,4H6A2,2,0,0,0,4,6V20.24a2,2,0,0,0,2,2H20.24a2,2,0,0,0,2-2V6A2,2,0,0,0,20.24,4Zm-1,15.24H7V7H19.24Z"/><path  d="M42,4H27.76a2,2,0,0,0-2,2V20.24a2,2,0,0,0,2,2H42a2,2,0,0,0,2-2V6A2,2,0,0,0,42,4ZM41,19.24H28.76V7H41Z"/><path  d="M20.24,25.76H6a2,2,0,0,0-2,2V42a2,2,0,0,0,2,2H20.24a2,2,0,0,0,2-2V27.76A2,2,0,0,0,20.24,25.76ZM19.24,41H7V28.76H19.24Z"/><path  d="M42,25.76H27.76a2,2,0,0,0-2,2V42a2,2,0,0,0,2,2H42a2,2,0,0,0,2-2V27.76A2,2,0,0,0,42,25.76ZM41,41H28.76V28.76H41Z"/></g></svg>
